packages/ffe-icons/icons/open/300/sm/data_loss_prevention.svg

<svg xmlns="http://www.w3.org/2000/svg" height="20" viewBox="0 -960 960 960" width="20"><path d="M444.212-586.001q25.942 0 43.864-18.135 17.923-18.135 17.923-44.076 0-25.942-18.135-43.864-18.135-17.923-44.076-17.923-25.942 0-43.864 18.135-17.923 18.135-17.923 44.076 0 25.942 18.135 43.864 18.135 17.923 44.076 17.923Zm.238 168q38.165 0 71.934-16.23 33.769-16.231 60.846-43.651-32.077-18.348-65.57-29.233-33.493-10.884-67.307-10.884-37.276 0-71.699 11.077-34.423 11.076-61.499 29.23 25.692 27.23 60.219 43.461 34.526 16.23 73.076 16.23Zm-.405 144q-122.814 0-206.429-84.302Q154.001-442.606 154.001-564q0-122.769 83.615-206.384 83.615-83.615 205.884-83.615 122.269 0 206.384 83.615 84.115 83.615 84.115 206.429 0 54.632-17.077 100.409-17.077 45.777-50 85.315L843.68-201.473q8.628 8.628 8.436 18.012-.193 9.385-8.5 18.077-8.692 8.692-18.769 8.692-10.077 0-18.704-8.564L629.385-341.078q-39.539 32.923-85.123 50-45.585 17.077-100.217 17.077ZM444-325.999q99.846 0 168.924-69.077 69.077-69.078 69.077-169.424t-69.077-168.924Q543.846-802.001 444-802.001q-100.846 0-169.424 68.577-68.577 68.578-68.577 168.924t68.577 169.424Q343.154-325.999 444-325.999ZM444-576Z"/></svg>

<svg xmlns="http://www.w3.org/2000/svg" height="20" viewBox="0 -960 960 960" width="20"><path d="M444.21-586q25.94 0 43.87-18.14Q506-622.27 506-648.21t-18.14-43.87Q469.73-710 443.79-710t-43.87 18.14Q382-673.73 382-647.79t18.14 43.87Q418.27-586 444.21-586Zm.24 168q38.16 0 71.93-16.23 33.77-16.23 60.85-43.65-32.08-18.35-65.57-29.23Q478.17-518 444.35-518q-37.27 0-71.7 11.08-34.42 11.07-61.49 29.23 25.69 27.23 60.21 43.46Q405.9-418 444.45-418Zm-.41 144q-122.81 0-206.42-84.3Q154-442.61 154-564q0-122.77 83.62-206.38Q321.23-854 443.5-854t206.38 83.62Q734-686.77 734-563.96q0 54.64-17.08 100.41-17.07 45.78-50 85.32l176.76 176.76q8.63 8.63 8.44 18.01-.2 9.38-8.5 18.08-8.7 8.69-18.77 8.69-10.08 0-18.71-8.57L629.38-341.08q-39.53 32.93-85.12 50Q498.68-274 444.04-274Zm-.04-52q99.85 0 168.92-69.08Q682-464.15 682-564.5t-69.08-168.92Q543.85-802 444-802q-100.85 0-169.42 68.58Q206-664.85 206-564.5t68.58 169.42Q343.15-326 444-326Zm0-250Z"/></svg>
